svg/skull_outline.svg

<svg xmlns="http://www.w3.org/2000/svg" viewBox="0 0 24 24"><path d="M8 15a2 2 0 0 1-2-2 2 2 0 0 1 2-2 2 2 0 0 1 2 2 2 2 0 0 1-2 2m2.5 2 1.5-3 1.5 3zm5.5-2a2 2 0 0 1-2-2 2 2 0 0 1 2-2 2 2 0 0 1 2 2 2 2 0 0 1-2 2m6-4A10 10 0 0 0 12 1 10 10 0 0 0 2 11c0 2.8 1.2 5.3 3 7.1V22h14v-3.9c1.8-1.8 3-4.3 3-7.1m-5 9h-2v-2h-2v2h-2v-2H9v2H7v-2.8c-1.8-1.5-3-3.7-3-6.2a8 8 0 0 1 8-8 8 8 0 0 1 8 8c0 2.5-1.2 4.8-3 6.2z"/></svg>

<?xml version="1.0" encoding="UTF-8"?><!DOCTYPE svg PUBLIC "-//W3C//DTD SVG 1.1//EN" "http://www.w3.org/Graphics/SVG/1.1/DTD/svg11.dtd"><svg xmlns="http://www.w3.org/2000/svg" xmlns:xlink="http://www.w3.org/1999/xlink" version="1.1" id="mdi-skull-outline" width="24" height="24" viewBox="0 0 24 24"><path d="M8,15A2,2 0 0,1 6,13A2,2 0 0,1 8,11A2,2 0 0,1 10,13A2,2 0 0,1 8,15M10.5,17L12,14L13.5,17H10.5M16,15A2,2 0 0,1 14,13A2,2 0 0,1 16,11A2,2 0 0,1 18,13A2,2 0 0,1 16,15M22,11A10,10 0 0,0 12,1A10,10 0 0,0 2,11C2,13.8 3.2,16.3 5,18.1V22H19V18.1C20.8,16.3 22,13.8 22,11M17,20H15V18H13V20H11V18H9V20H7V17.2C5.2,15.7 4,13.5 4,11A8,8 0 0,1 12,3A8,8 0 0,1 20,11C20,13.5 18.8,15.8 17,17.2V20Z" /></svg>
